packages/core/src/svgs/tokens/branded/STATOM.svg

<svg width="24" height="24" viewBox="0 0 24 24" fill="none" xmlns="http://www.w3.org/2000/svg">
<path d="M19.1262 7.18748L15.6137 8.40622C15.4012 8.47498 15.1762 8.36247 15.0887 8.14998C14.8421 7.4692 14.3983 6.87731 13.8138 6.44984C13.2295 6.02239 12.5309 5.77873 11.8075 5.74999C10.32 5.74999 9.01371 6.57498 9.01371 7.63123C9.01371 9.26252 12.1575 9.89368 13.7325 10.0063C19.0199 10.75 20.1886 14.0313 20.1137 15.5749C20.2575 17.7186 18.9575 22 12.5575 22C6.49497 22 4.30748 18.2874 3.88248 16.1375C3.86505 16.0417 3.88432 15.9428 3.93642 15.8606C3.98853 15.7785 4.06969 15.7188 4.16373 15.6937L7.71371 14.7187C7.93872 14.6561 8.16997 14.8125 8.22621 15.0499C8.85121 17.7624 11.3574 18.2499 12.5575 18.2499C13.5887 18.2499 15.6512 17.75 15.6512 16.0938C15.6512 14.0062 12.0325 13.9812 8.76371 12.9999C5.50123 12.0188 4.54499 9.81246 4.54499 7.95622C4.54499 6.10623 5.21373 2 11.8137 2C16.7512 2 18.8386 4.94998 19.3762 6.71249C19.4387 6.91248 19.3262 7.11873 19.1325 7.18748H19.1262Z" fill="#E91179"/>
</svg>

<svg xmlns="http://www.w3.org/2000/svg" width="24" height="24" fill="none" viewBox="0 0 24 24">
    <path fill="#E91179" d="m19.126 7.187-3.512 1.22a.427.427 0 0 1-.525-.257 3.64 3.64 0 0 0-3.282-2.4c-1.487 0-2.793.825-2.793 1.881 0 1.632 3.144 2.263 4.719 2.375 5.287.744 6.456 4.025 6.38 5.569.145 2.144-1.155 6.425-7.555 6.425-6.063 0-8.25-3.713-8.676-5.863a.39.39 0 0 1 .282-.443l3.55-.975c.225-.063.456.094.512.33.625 2.713 3.131 3.2 4.331 3.2 1.032 0 3.094-.499 3.094-2.155 0-2.088-3.618-2.113-6.887-3.094-3.263-.981-4.219-3.188-4.219-5.044 0-1.85.669-5.956 7.269-5.956 4.937 0 7.025 2.95 7.562 4.712.063.2-.05.407-.244.475z"/>
</svg>
